X:54
T:Loves a Tyrant. JGi.054
M:2/4
L:1/8
Q:1/4=90
S:Joshua Gibbons MS,1823,Tealby,Lincs.
R:Air
O:Tealby,Lincolnshire
Z:VMP/R.Greig, 2009
K:D
A|A3F|(dBGE)|D2 F>E|D2zE|F>FG>G|A2zF|
(cB) (AG)|FEz A|Adf ^A|B2zF|GB (e/d/c/B/)|A2zG|
F>F G>G|Ad (d/B/G/E/)|D2F>E|D2z||A|A3F|
(dB) (GE)|D2F>E|D2zE|F2G2|A2zA|(cB) (AG)|
(FE)zA|A3F|(dB) (GE)|D2F>E|D2zE|F2^G2|
(Ac) (ed)|(cB) (A^G)|A2zA|A AzA|d AzA|{^G}AzA A|d AzA|(Ad) (fe)|
(dc) B A|B A G F |{F}E2zA|(dc) (BA)|(dc) HB A|(ed) (cB)|
(AG) (F/2A/2) (G/2E/2)|D2E2|(Fd d/2B/2) (G/2E/2)|
D2 (3DAG|(GF2)A|(dc) (BA)|(dc) B A|(dc) (ed)|(cB) A G |
F2~G2{FG}|A<HdB2 {BAGF GAcB dcdB}|(Ac/B/ A) C|
D3zA/2G/2|FAd F|EGB D|CEA C|D2z|]

